X: 1069
T: The Little Grey Church
R:double jig
B:O'Neill's 1069
Z:Transcribed by henrik.norbeck@mailbox.swipnet.se
M:6/8
L:1/8
K:G
D|GAG GDE|GAG GAB|cec BdB|ABG TE2D|
GDE GAB|cBA Bcd|edc BAG|AEF G2:|
(A/B/)|c2c cde|gdc Bcd|cdc BdB|ABG AFD|
GBd cAF|GAG Bcd|edc BAG|AEF G2:|


